X: 1
T: Barr Na Ceibhe
M: 4/4
L: 1/8
R: reel
K: Gmaj
G3 F GB d2 | GBdB gdBG | (3EFG AB cdef | g2 gf gedB | 
G3 F GB d2 | GBdB gdBG | (3EFG AB cdeg |1 fdcA GDEF :|2 fdcA G2 (3Bcd ||
g2 gf gdad | gbag fdde | f3 g a3 g | fage d2 ef | 
g3 f gdad | gbag fddB | c2 GB cedc |1 BdcA G2 Bd :|2 BdcA G4 ||
